icons/op-ordered-list-24.svg

<svg width="24" height="24" viewBox="0 0 24 24" fill="none" xmlns="http://www.w3.org/2000/svg">
<path d="M8.59919 5.60723H20V7.76627H8.59919V5.60723ZM8.59919 11.0048H20V13.1639H8.59919V11.0048ZM8.59919 16.4024H20V18.5614H8.59919V16.4024ZM4.06478 5.80964L4.97166 5H5.39271V7.73253H5.94332V8.13735H4.2915V7.73253H4.87449V5.91084C4.87449 5.84337 4.90688 5.7759 4.90688 5.70843L4.45344 6.07952C4.45344 6.07952 4.42105 6.07952 4.42105 6.11325H4.35628C4.32389 6.11325 4.2915 6.11325 4.2915 6.07952C4.25911 6.07952 4.22672 6.07952 4.22672 6.04578L4.06478 5.80964ZM4 13.5349V13.3663V13.2313C4.03239 13.1976 4.03239 13.1639 4.06478 13.1301L4.97166 12.1855C5.06883 12.1181 5.1336 12.0169 5.19838 11.9494C5.23077 11.8819 5.29555 11.8145 5.32794 11.747C5.39271 11.6795 5.39271 11.612 5.4251 11.5108C5.45749 11.4434 5.45749 11.3759 5.45749 11.2747C5.45749 11.2072 5.45749 11.1398 5.4251 11.0723C5.4251 11.0386 5.39271 10.9711 5.32794 10.9373C5.29555 10.9036 5.26316 10.8699 5.19838 10.8699C5.16599 10.8361 5.10121 10.8361 5.03644 10.8361C4.90688 10.8361 4.80972 10.8699 4.71255 10.9373C4.64777 11.0048 4.583 11.0723 4.55061 11.1735C4.55061 11.241 4.51822 11.2747 4.48583 11.3084C4.45344 11.3422 4.42105 11.3422 4.35628 11.3422H4.2915L4.03239 11.2747C4.06478 11.1398 4.09717 11.0048 4.16194 10.9036C4.22672 10.7687 4.2915 10.6675 4.38866 10.6C4.45344 10.5325 4.55061 10.4651 4.68016 10.4313C4.80972 10.3976 4.90688 10.3639 5.03644 10.3639C5.19838 10.3639 5.32794 10.3976 5.4251 10.4313C5.55466 10.4988 5.65182 10.5325 5.7166 10.6337C5.81377 10.7012 5.87854 10.8024 5.91093 10.9036C5.97571 11.0048 5.97571 11.1398 5.97571 11.2747C5.97571 11.3759 5.97571 11.4771 5.94332 11.5783C5.91093 11.6795 5.87854 11.7807 5.81377 11.8819C5.74899 11.9494 5.68421 12.0506 5.61943 12.1181C5.55466 12.2193 5.45749 12.2867 5.39271 12.388L4.71255 13.0964C4.77733 13.0964 4.84211 13.0627 4.90688 13.0627C4.97166 13.0627 5.03644 13.0289 5.10121 13.0289H5.84615C5.91093 13.0289 5.94332 13.0627 5.97571 13.0964C6.0081 13.1301 6.04049 13.1639 6.04049 13.2313V13.5349H4ZM4.06478 18.1904L4.2915 18.0892C4.32389 18.0892 4.38866 18.0554 4.42105 18.0554C4.45344 18.0554 4.48583 18.0892 4.51822 18.0892C4.55061 18.0892 4.55061 18.1229 4.583 18.1566C4.61538 18.2241 4.61538 18.2578 4.64777 18.3253C4.68016 18.359 4.71255 18.3928 4.77733 18.4265C4.80972 18.494 4.84211 18.494 4.90688 18.5277C4.97166 18.5614 5.03644 18.5614 5.10121 18.5614C5.19838 18.5614 5.26316 18.5614 5.32794 18.5277C5.39271 18.494 5.45749 18.4602 5.48988 18.3928C5.55466 18.359 5.58704 18.2916 5.58704 18.2578C5.61943 18.1904 5.61943 18.1229 5.61943 18.0892V17.8867C5.58704 17.8193 5.55466 17.7518 5.52227 17.7181C5.45749 17.6843 5.39271 17.6506 5.29555 17.6169C5.23077 17.5831 5.10121 17.5831 4.93927 17.5831V17.1783C5.06883 17.1783 5.16599 17.1783 5.26316 17.1446C5.32794 17.1446 5.39271 17.1108 5.45749 17.0771C5.48988 17.0096 5.55466 16.9759 5.55466 16.9084C5.58704 16.841 5.58704 16.8072 5.58704 16.7398C5.58704 16.5711 5.55466 16.4699 5.45749 16.4024C5.39271 16.3012 5.29555 16.2675 5.16599 16.2675C5.03644 16.2675 4.93927 16.3012 4.84211 16.3687C4.77733 16.4361 4.71255 16.5373 4.68016 16.6386C4.68016 16.6723 4.64777 16.7398 4.61538 16.7398C4.583 16.7735 4.55061 16.7735 4.48583 16.7735H4.42105L4.16194 16.7398C4.19433 16.5711 4.22672 16.4361 4.2915 16.3349C4.35628 16.2337 4.42105 16.1325 4.51822 16.0651C4.583 15.9639 4.71255 15.9301 4.80972 15.8964C4.93927 15.8289 5.03644 15.8289 5.19838 15.8289C5.32794 15.8289 5.45749 15.8627 5.55466 15.8964C5.65182 15.9301 5.74899 15.9976 5.84615 16.0651C5.91093 16.1325 5.97571 16.2 6.0081 16.3012C6.07287 16.4024 6.07287 16.5036 6.07287 16.6386C6.07287 16.7398 6.07287 16.8072 6.04049 16.9084C6.04049 16.9759 6.0081 17.0434 5.94332 17.0771C5.91093 17.1446 5.87854 17.1783 5.81377 17.2458L5.61943 17.347C5.78138 17.3807 5.91093 17.4819 6.0081 17.6169C6.10526 17.7181 6.13765 17.8867 6.13765 18.0554C6.13765 18.2241 6.10526 18.359 6.07287 18.4602C6.0081 18.5952 5.94332 18.6964 5.84615 18.7639C5.74899 18.8651 5.65182 18.8988 5.52227 18.9663C5.39271 19 5.26316 19 5.1336 19C4.97166 19 4.84211 19 4.71255 18.9663C4.61538 18.9325 4.51822 18.8651 4.42105 18.7976C4.35628 18.7301 4.2915 18.6627 4.22672 18.5277C4.16194 18.4265 4.12955 18.3253 4.06478 18.1904Z" fill="black"/>
</svg>

<svg xmlns="http://www.w3.org/2000/svg" width="24" height="24" viewBox="0 0 24 24"><path d="M8.599 5.607H20v2.159H8.599V5.607Zm0 5.398H20v2.159H8.599v-2.159Zm0 5.397H20v2.159H8.599v-2.159ZM4.065 5.81 4.972 5h.421v2.733h.55v.404H4.292v-.404h.582V5.911c0-.068.033-.135.033-.203l-.454.372s-.032 0-.032.033h-.065c-.032 0-.064 0-.064-.033-.033 0-.065 0-.065-.034l-.162-.236ZM4 13.535v-.304c.032-.033.032-.067.065-.101l.907-.945c.097-.067.162-.168.226-.236.033-.067.098-.134.13-.202.065-.067.065-.135.097-.236.032-.068.032-.135.032-.236 0-.068 0-.135-.032-.203 0-.033-.032-.101-.097-.135-.032-.033-.065-.067-.13-.067-.032-.034-.097-.034-.162-.034a.533.533 0 0 0-.323.101c-.065.068-.13.135-.162.237 0 .067-.033.101-.065.134-.033.034-.065.034-.13.034h-.064l-.26-.067c.033-.135.065-.27.13-.371.065-.135.13-.236.227-.304a.624.624 0 0 1 .291-.169c.13-.033.227-.067.356-.067.162 0 .292.034.389.067.13.068.227.102.292.203a.517.517 0 0 1 .194.27c.065.101.065.236.065.371 0 .101 0 .202-.033.303a1.186 1.186 0 0 1-.129.304c-.065.067-.13.169-.195.236-.064.101-.162.169-.226.27l-.68.708c.064 0 .129-.033.194-.033s.129-.034.194-.034h.745c.065 0 .097.034.13.067.032.034.064.068.064.135v.304H4Zm.065 4.655.227-.101c.032 0 .097-.034.129-.034s.065.034.097.034c.033 0 .033.034.065.068.032.067.032.101.065.168a.452.452 0 0 0 .129.102c.033.067.065.067.13.101a.403.403 0 0 0 .194.033c.097 0 .162 0 .227-.033.065-.034.129-.068.162-.135.065-.034.097-.101.097-.135.032-.068.032-.135.032-.169v-.202a.706.706 0 0 0-.097-.169 1.555 1.555 0 0 0-.226-.101c-.065-.034-.195-.034-.357-.034v-.405c.13 0 .227 0 .324-.033a.44.44 0 0 0 .194-.068c.033-.067.098-.101.098-.169.032-.067.032-.101.032-.168 0-.169-.032-.27-.13-.338-.064-.101-.161-.135-.291-.135a.528.528 0 0 0-.324.102.735.735 0 0 0-.162.27c0 .033-.032.101-.065.101-.032.033-.064.033-.129.033h-.065l-.259-.033c.032-.169.065-.304.13-.405a.898.898 0 0 1 .226-.27c.065-.101.195-.135.292-.169.129-.067.226-.067.388-.067.13 0 .259.034.357.067.097.034.194.102.291.169.065.068.13.135.162.236.065.101.065.203.065.338 0 .101 0 .168-.033.269a.186.186 0 0 1-.097.169c-.032.068-.064.101-.129.169l-.195.101a.645.645 0 0 1 .389.27c.097.101.13.27.13.438 0 .169-.033.304-.065.405-.065.135-.13.236-.227.304-.097.101-.194.135-.324.202-.129.034-.259.034-.388.034-.162 0-.292 0-.421-.034-.098-.033-.195-.101-.292-.168a.936.936 0 0 1-.194-.27c-.065-.101-.097-.203-.162-.338Z"/></svg>
